printer-pos-edit.svg

<svg fill="currentColor" viewBox="0 0 24 24"><path d="M17 9H7V4h10zm2.39 1.74L11.13 19H4v-7a2 2 0 0 1 2-2h12c.59 0 1.11.26 1.5.67-.05.02-.08.04-.11.07M10 12H6v2h4zm3 7.96V22h2.04l6.13-6.12-2.04-2.05zm9.85-6.49-1.32-1.32c-.2-.2-.53-.2-.72 0l-.98.98 2.04 2.04.98-.98c.2-.19.2-.52 0-.72"/></svg>

<svg  viewBox="0 0 24 24" fill="currentColor"><path  d="M17 9H7V4H17V9M19.39 10.74L11.13 19H4V12C4 10.9 4.89 10 6 10H18C18.59 10 19.11 10.26 19.5 10.67C19.45 10.69 19.42 10.71 19.39 10.74M10 12H6V14H10V12M13 19.96V22H15.04L21.17 15.88L19.13 13.83L13 19.96M22.85 13.47L21.53 12.15C21.33 11.95 21 11.95 20.81 12.15L19.83 13.13L21.87 15.17L22.85 14.19C23.05 14 23.05 13.67 22.85 13.47Z"/></svg>
